X:1
T:Le Papillon
T:Pièces Faciles et Agréables pour la Flûte ou Violon et Guitare 
T:Mauro Giuliani  (1781-1829)
T:Op.74
C:Giuliani
%%score { 1 ( 2 3 ) ( 4 5 ) }
L:1/8
Q:1/4=100
M:2/4
K:G
V:1 treble nm="Flûte"
V:2 treble-8 nm="Classical Guitar"
V:3 treble-8 
V:4 tab stafflines=6 strings=E2,A2,D3,G3,B3,E4 nostems nm="Guitare classique [Tablature]"
V:5 tab stafflines=6 strings=E2,A2,D3,G3,B3,E4 nostems 
V:1
"^Allegretto" B/c/ | dd d(f/g/) | dd de/d/ | Ae/d/ Ad/c/ | B/c/A/B/ G/A/B/c/ | dd df/g/ | %6
 d b2 a/g/ | g/f/e/d/ ^c/d/e/f/ | gb g :| f/g/ | aa d'd' | b2 c'/b/a/g/ | ff g/f/e/f/ | %13
 (g2 d) f/g/ | aa d'd' | b2 b/a/g/f/ | ee{/f} e/d/e/f/ | d>f ag/e/ | d>f ag/e/ | d^c/e/ dc/e/ | %20
 d^c/e/ dB/=c/ | dd df/g/ | dd de/d/ | Ae/d/ Ad/c/ | B/c/A/B/ G/A/B/c/ | dd df/g/ | d b2 a/g/ | %27
 g/f/e/d/ ^c/d/e/f/ | gb g!fine! |]:[K:C] c'/d'/ | e'e' e'e' | a2 d'2 | bb d'/c'/b/c'/ | %33
 d'>g a/b/c'/d'/ | !/!e'4 | ^d'2 e'b/g/ | c'a/^f/ af/^d/ | e3 :: =d/e/ | g/f/d/B/ Gd/e/ | %40
 g/f/d/B/ GA/B/ |{/d} c/B/c/d/{/f} e/d/e/^f/ | g/G/A/B/ c/d/e/=f/ | gg e'e' | e'2 d'/c'/b/c'/ | %45
 d'g !turn!ga/b/ | c'e' c'!D.C.! :| %47
V:2
 z | [DGB][DGB] [DGB] z | [DGB][DGB] [DGB] z | [DAc]2 [DAc]2 | [DGB][DGB] [DGB] z | %5
 z/ D/G/B/ z/ D/G/B/ | z/ D/G/B/ z/ D/G/B/ | z/ D/A/c/ z/ D/A/c/ | z/ G/B/g/ z :| z | %10
 z [Adf] z [Adf] | z [Bdg] z [Bdg] | z [cda] z [cda] | z [Bdg] z [Bdg] | z [Adf] z [Adf] | %15
 z [GBg] z [GBg] | z [A^cg] z [Acg] | z [Adf] z [A^cg] | z [Adf] z [A^cg] | [Adf]2 z2 | z4 | %21
 [DGB][DGB] [DGB] z | [DGB][DGB] [DGB] z | [DAc]2 [DAc]2 | [DGB][DGB] [DGB] z | %25
 z/ D/G/B/ z/ D/G/B/ | z/ D/G/B/ z/ D/G/B/ | z/ D/A/c/ z/ D/A/c/ | z/ G/B/g/ z |]:[K:C] z | %30
 z [Gce] z [Gce] | z [Acf] z [Acf] | z [Gdf] z [Gce] | z [GBg] z2 | z [Gce] z [Gce] | %35
 z [AB^f] z [GBe] | z [Ac^f] z [ABf] | z [GBe] z :: z | z [Gd=f] [Gdf] z | z [Gdf] [Gdf] z | %41
 z [Gce] z [c^f] | [Bg]2 z2 | z [Gce] z [Gce] | z [Gce] z [Gce] | z [Gdf] z [Gdf] | %46
 z [Gce] [Gce] :| %47
V:3
 x | G,G, G, z | G,G, G, z | G,2 G,2 | G,G, G, z | G,2 G,2 | G,2 G,2 | G,2 G,2 | G,2 G, :| z | %10
 D z D z | D z D z | D z D z | D z D z | D z D z | G, z G, z | A, z A, z | D z A, z | D z A, z | %19
 D2 z2 | x4 | G,G, G, z | G,G, G, z | G,2 G,2 | G,G, G, z | G,2 G,2 | G,2 G,2 | G,2 G,2 | %28
 G,2 G, |]:[K:C] z | C z C z | F, z F, z | G, z C z | G, z G, z | C z C z | B, z E, z | A, z B, z | %37
 E, z E, :: z | z B, B, z | z B, B, z | C z A, z | G,2 z2 | C z C z | C z C z | G, z G, z | %46
 C z C :| %47
V:4
 x | [!4!D,!3!G,!2!B,] [!4!D,!3!G,!2!B,] [!4!D,!3!G,!2!B,] x | %2
 [!4!D,!3!G,!2!B,] [!4!D,!3!G,!2!B,] [!4!D,!3!G,!2!B,] x | [!4!D,!3!A,!2!C]2 [!4!D,!3!A,!2!C]2 | %4
 [!4!D,!3!G,!2!B,] [!4!D,!3!G,!2!B,] [!4!D,!3!G,!2!B,] x | %5
 x/ !4!D,/ !3!G,/ !2!B,/ x/ !4!D,/ !3!G,/ !2!B,/ | %6
 x/ !4!D,/ !3!G,/ !2!B,/ x/ !4!D,/ !3!G,/ !2!B,/ | x/ !4!D,/ !3!A,/ !2!C/ x/ !4!D,/ !3!A,/ !2!C/ | %8
 x/ !3!G,/ !2!B,/ !1!G/ x :| x | x [!3!A,!2!D!1!F] x [!3!A,!2!D!1!F] | %11
 x [!3!B,!2!D!1!G] x [!3!B,!2!D!1!G] | x [!3!C!2!D!1!A] x [!3!C!2!D!1!A] | %13
 x [!3!B,!2!D!1!G] x [!3!B,!2!D!1!G] | x [!3!A,!2!D!1!F] x [!3!A,!2!D!1!F] | %15
 x [!3!G,!2!B,!1!G] x [!3!G,!2!B,!1!G] | x [!3!A,!2!^C!1!G] x [!3!A,!2!C!1!G] | %17
 x [!3!A,!2!D!1!F] x [!3!A,!2!^C!1!G] | x [!3!A,!2!D!1!F] x [!3!A,!2!^C!1!G] | %19
 [!3!A,!2!D!1!F]2 x2 | x4 | [!4!D,!3!G,!2!B,] [!4!D,!3!G,!2!B,] [!4!D,!3!G,!2!B,] x | %22
 [!4!D,!3!G,!2!B,] [!4!D,!3!G,!2!B,] [!4!D,!3!G,!2!B,] x | [!4!D,!3!A,!2!C]2 [!4!D,!3!A,!2!C]2 | %24
 [!4!D,!3!G,!2!B,] [!4!D,!3!G,!2!B,] [!4!D,!3!G,!2!B,] x | %25
 x/ !4!D,/ !3!G,/ !2!B,/ x/ !4!D,/ !3!G,/ !2!B,/ | %26
 x/ !4!D,/ !3!G,/ !2!B,/ x/ !4!D,/ !3!G,/ !2!B,/ | x/ !4!D,/ !3!A,/ !2!C/ x/ !4!D,/ !3!A,/ !2!C/ | %28
 x/ !3!G,/ !2!B,/ !1!G/ x |]:[K:C] x | x [!3!G,!2!C!1!E] x [!3!G,!2!C!1!E] | %31
 x [!3!A,!2!C!1!F] x [!3!A,!2!C!1!F] | x [!3!G,!2!D!1!F] x [!3!G,!2!C!1!E] | %33
 x [!3!G,!2!B,!1!G] x2 | x [!3!G,!2!C!1!E] x [!3!G,!2!C!1!E] | %35
 x [!3!A,!2!B,!1!^F] x [!3!G,!2!B,!1!E] | x [!3!A,!2!C!1!^F] x [!3!A,!2!B,!1!F] | %37
 x [!3!G,!2!B,!1!E] x :: x | x [!3!G,!2!D!1!=F] [!3!G,!2!D!1!F] x | %40
 x [!3!G,!2!D!1!F] [!3!G,!2!D!1!F] x | x [!3!G,!2!C!1!E] x [!2!C!1!^F] | [!2!B,!1!G]2 x2 | %43
 x [!3!G,!2!C!1!E] x [!3!G,!2!C!1!E] | x [!3!G,!2!C!1!E] x [!3!G,!2!C!1!E] | %45
 x [!3!G,!2!D!1!F] x [!3!G,!2!D!1!F] | x [!3!G,!2!C!1!E] [!3!G,!2!C!1!E] :| %47
V:5
 x | !6!G,, !6!G,, !6!G,, x | !6!G,, !6!G,, !6!G,, x | !6!G,,2 !6!G,,2 | !6!G,, !6!G,, !6!G,, x | %5
 !6!G,,2 !6!G,,2 | !6!G,,2 !6!G,,2 | !6!G,,2 !6!G,,2 | !6!G,,2 !6!G,, :| x | !4!D, x !4!D, x | %11
 !4!D, x !4!D, x | !4!D, x !4!D, x | !4!D, x !4!D, x | !4!D, x !4!D, x | !6!G,, x !6!G,, x | %16
 !5!A,, x !5!A,, x | !4!D, x !5!A,, x | !4!D, x !5!A,, x | !4!D,2 x2 | x4 | %21
 !6!G,, !6!G,, !6!G,, x | !6!G,, !6!G,, !6!G,, x | !6!G,,2 !6!G,,2 | !6!G,, !6!G,, !6!G,, x | %25
 !6!G,,2 !6!G,,2 | !6!G,,2 !6!G,,2 | !6!G,,2 !6!G,,2 | !6!G,,2 !6!G,, |]:[K:C] x | %30
 !5!C, x !5!C, x | !6!F,, x !6!F,, x | !6!G,, x !5!C, x | !6!G,, x !6!G,, x | !5!C, x !5!C, x | %35
 !5!B,, x !6!E,, x | !5!A,, x !5!B,, x | !6!E,, x !6!E,, :: x | x !5!B,, !5!B,, x | %40
 x !5!B,, !5!B,, x | !5!C, x !5!A,, x | !6!G,,2 x2 | !5!C, x !5!C, x | !5!C, x !5!C, x | %45
 !6!G,, x !6!G,, x | !5!C, x !5!C, :| %47

